Cloud/dashboard/static/tracks/albert_park.svg

<?xml version="1.0" encoding="UTF-8"?>
<!-- Uploaded to: SVG Find, www.svgfind.com, Generator: SVG Find Mixer Tools -->
<svg fill="#000000" width="800px" height="800px" version="1.1" viewBox="144 144 512 512" xmlns="http://www.w3.org/2000/svg">
 <path d="m608.99 238.08-24.379-46.23c-2.7734-5.2617-9.6992-7.5156-15.059-4.8398-15.125 7.5781-57.785 28.961-74.805 37.527-15.145 7.6211-33.227 35.805-45.73 58.109-4.9688 8.8555-5.8594 19.43-2.4453 29.02l0.71875 2.0156c3.9297 11.02 2.2734 23.324-4.418 32.922l-20.031 28.691c-15.758 22.578-48.516 28.16-52.203 28.719-5.3086 0.8125-21.578 1.2578-45.809 1.2578-5.5625 0-10.422-0.023438-13.742-0.046876-1.0039-0.007812-1.9141-0.5625-2.3945-1.4492l-5.0547-9.4141c-3.3906-6.3164-11.457-9.1875-18.098-6.4336-14 5.832-48.242 20.117-63.676 26.73-22.969 9.8438-24.562 31.012-24.211 53.691 0.17969 11.918-3.6328 20.07-6.8633 24.812-3.3516 4.9219-3.0977 11.34 0.63281 15.961 12.996 16.094 21.109 30.09 24.797 37.004 2.1133 3.9648 4.7695 7.5938 7.8906 10.785l28.191 28.812c3.9219 4.0039 9.7188 5.8945 15.344 4.832l40.375-7.5703c1.5547-0.28906 3.1211 0.30469 4.0898 1.5078 4.75 5.9102 8.3906 12.52 10.824 19.648 2.0352 5.9609 7.6289 9.9648 13.914 9.9648 3.8047 0 7.4141-1.4805 10.164-4.1641l42.273-41.309c2.5938-2.5391 4.9922-5.332 7.125-8.3047 8.0312-11.215 27.871-38.715 38.57-51.781 4.1289-5.0391 10.27-7.5938 18.258-7.5938 3.2109 0 6.6211 0.41016 10.125 1.2188 5.7148 1.3281 11.922-1.0781 15.32-5.9336l33.094-47.406 4.0781 2.8164-24.91 36.078-6.6523 9.6328 14.984-6.7227-0.72266-4.9453 24.402-35.348-8.2617-5.7031 77.625-111.2c3.3203-4.7617 4.5391-10.523 3.4219-16.23-1.1133-5.6914-4.4062-10.559-9.2734-13.707-5.625-3.6445-11.672-7.1914-17.961-10.547-0.625-0.33594-0.75-0.89063-0.76953-1.1953-0.019531-0.37109 0.066407-0.89062 0.61719-1.2773l33.695-23.684c9.1914-6.4375 12.168-18.793 6.9375-28.723zm-12.805 20.375-33.695 23.684c-3.3438 2.3477-5.1875 6.1836-4.9375 10.262s2.5469 7.6602 6.1562 9.5859c6.0391 3.2188 11.832 6.6211 17.223 10.105 2.5156 1.6289 4.2188 4.1484 4.793 7.0977 0.58203 2.957-0.050781 5.9453-1.7773 8.4141l-113.64 162.79c-1.043 1.4883-2.8945 2.2305-4.6484 1.832-4.2539-0.98438-8.4336-1.4805-12.422-1.4805-11.039 0-20.086 3.9219-26.16 11.34-10.891 13.297-30.887 41.012-38.973 52.305-1.7812 2.4883-3.7852 4.8203-5.9609 6.9453l-42.27 41.309c-1.0664 1.0391-2.2344 1.2539-3.0312 1.2539-1.4766 0-3.4727-0.79688-4.2383-3.0508-2.8164-8.2539-7.0312-15.906-12.531-22.746-2.7578-3.4336-6.8633-5.3984-11.27-5.3984-0.88672 0-1.7812 0.078125-2.668 0.24609l-40.375 7.5703c-2.25 0.42578-4.5859-0.33203-6.1562-1.9375l-28.191-28.812c-2.4453-2.5-4.5234-5.3438-6.1797-8.4492-3.8516-7.2344-12.336-21.867-25.859-38.617-0.88281-1.0938-0.94141-2.6172-0.14453-3.7891 4.0664-5.9609 8.8594-16.129 8.6406-30.719-0.37109-24 2.3203-37.418 18.016-44.148 15.395-6.5938 49.594-20.863 63.586-26.688 1.8945-0.79688 4.1992 0.035157 5.168 1.8398l5.0469 9.4062c2.2461 4.1836 6.5859 6.8047 11.328 6.8359 3.3438 0.023438 8.2266 0.046876 13.812 0.046876 25.445 0 41.379-0.46484 47.348-1.375 4.1289-0.62891 40.844-6.9062 59.039-32.973l20.031-28.691c8.5781-12.297 10.699-28.07 5.6602-42.199l-0.71875-2.0156c-2.4258-6.8008-1.7891-14.305 1.7305-20.59 16.449-29.34 31.547-49.016 41.414-53.984 17.02-8.5625 59.668-29.938 75.266-37.633 0.32031 0 0.74219 0.15234 0.96875 0.58203l24.379 46.234c2.8477 5.3906 1.2305 12.105-3.7617 15.609z"/>
</svg>

<?xml version="1.0" encoding="utf-8"?>
<svg fill="#000000" width="800px" height="800px" version="1.1" viewBox="144 144 512 512" xmlns="http://www.w3.org/2000/svg">
  <path d="M 608.99 238.08 L 584.611 191.85 C 581.838 186.588 574.912 184.334 569.552 187.01 C 554.427 194.588 511.767 215.971 494.747 224.537 C 479.602 232.158 461.52 260.342 449.017 282.646 C 444.048 291.502 443.158 302.076 446.572 311.666 L 447.29 313.682 C 451.22 324.702 449.564 337.006 442.872 346.604 L 422.841 375.295 C 407.083 397.873 374.325 403.455 370.638 404.014 C 365.33 404.826 349.06 405.272 324.829 405.272 C 319.267 405.272 314.407 405.248 311.087 405.225 C 310.083 405.217 309.173 404.662 308.693 403.776 L 303.638 394.361 C 300.248 388.045 292.181 385.174 285.54 387.928 C 271.54 393.76 237.298 408.045 221.864 414.658 C 198.895 424.502 197.302 445.67 197.653 468.349 C 197.833 480.267 194.02 488.419 190.79 493.161 C 187.438 498.083 187.692 504.501 191.423 509.122 C 204.419 525.216 212.532 539.212 216.22 546.126 C 218.333 550.091 220.989 553.72 224.11 556.911 L 252.301 585.723 C 256.223 589.727 262.02 591.617 267.645 590.555 L 308.02 582.985 C 309.575 582.695 311.141 583.289 312.11 584.492 C 316.86 590.403 320.501 597.012 322.934 604.14 C 324.969 610.101 330.563 614.105 336.848 614.105 C 340.653 614.105 344.262 612.625 347.012 609.941 L 389.285 568.632 C 391.879 566.093 394.277 563.3 396.41 560.327 C 404.441 549.112 424.281 521.612 434.98 508.546 C 439.109 503.507 445.25 500.953 453.238 500.953 C 456.449 500.953 459.859 501.363 463.363 502.171 C 469.078 503.499 475.285 501.093 478.683 496.238 L 592.32 333.44 C 595.64 328.678 596.859 322.917 595.741 317.21 C 594.628 311.518 591.335 306.651 586.468 303.503 C 580.843 299.858 574.796 296.311 568.507 292.956 C 567.882 292.62 567.757 292.065 567.737 291.761 C 567.718 291.389 567.804 290.87 568.355 290.483 L 602.05 266.799 C 611.241 260.362 614.218 248.006 608.987 238.076 L 608.99 238.08 Z M 596.185 258.455 L 562.49 282.139 C 559.146 284.487 557.302 288.323 557.552 292.401 C 557.802 296.479 560.099 300.061 563.709 301.987 C 569.748 305.206 575.541 308.608 580.932 312.092 C 583.447 313.721 585.151 316.24 585.725 319.19 C 586.307 322.147 585.674 325.135 583.947 327.604 L 470.307 490.394 C 469.264 491.882 467.413 492.624 465.659 492.226 C 461.405 491.241 457.225 490.745 453.237 490.745 C 442.198 490.745 433.151 494.667 427.077 502.085 C 416.186 515.382 396.19 543.097 388.104 554.39 C 386.323 556.878 384.319 559.211 382.143 561.336 L 339.873 602.645 C 338.807 603.684 337.639 603.898 336.842 603.898 C 335.365 603.898 333.369 603.102 332.604 600.848 C 329.787 592.594 325.572 584.942 320.073 578.102 C 317.315 574.668 313.209 572.703 308.803 572.703 C 307.916 572.703 307.021 572.781 306.135 572.949 L 265.76 580.52 C 263.51 580.945 261.174 580.188 259.603 578.582 L 231.412 549.77 C 228.967 547.27 226.889 544.426 225.233 541.321 C 221.381 534.087 212.897 519.454 199.374 502.704 C 198.491 501.61 198.432 500.087 199.229 498.915 C 203.296 492.954 208.089 482.786 207.87 468.196 C 207.499 444.196 210.19 430.778 225.886 424.048 C 241.281 417.454 275.48 403.185 289.472 397.36 C 291.366 396.563 293.671 397.395 294.64 399.2 L 299.687 408.606 C 301.933 412.789 306.273 415.411 311.015 415.442 C 314.359 415.465 319.241 415.489 324.827 415.489 C 350.272 415.489 366.206 415.024 372.175 414.114 C 376.304 413.485 413.019 407.207 431.214 381.141 L 451.245 352.45 C 459.823 340.153 461.944 324.38 456.905 310.251 L 456.186 308.235 C 453.76 301.434 454.397 293.93 457.917 287.645 C 474.366 258.305 489.464 238.629 499.331 233.661 C 516.351 225.099 558.999 203.723 574.597 196.028 C 574.917 196.028 575.339 196.18 575.565 196.61 L 599.944 242.844 C 602.792 248.235 601.175 254.949 596.183 258.453 L 596.185 258.455 Z"/>
</svg>
